public/Wallet.svg

<svg width="40" height="40" viewBox="0 0 40 40" fill="none" xmlns="http://www.w3.org/2000/svg">
<rect width="40" height="40" rx="8" fill="#F0F0F5"/>
<path fill-rule="evenodd" clip-rule="evenodd" d="M30 15C30 12.7909 28.2091 11 26 11H14C11.7909 11 10 12.7909 10 15V16.5H14C15.933 16.5 17.5 18.067 17.5 20C17.5 21.933 15.933 23.5 14 23.5H10V25C10 27.2091 11.7909 29 14 29H26C28.2091 29 30 27.2091 30 25V15ZM14 18C15.1046 18 16 18.8954 16 20C16 21.1046 15.1046 22 14 22H10V18H14Z" fill="#656CE1"/>
</svg>

<svg width="40" height="40" fill="none" xmlns="http://www.w3.org/2000/svg"><rect width="40" height="40" rx="8" fill="#F0F0F5"/><path fill-rule="evenodd" clip-rule="evenodd" d="M30 15a4 4 0 0 0-4-4H14a4 4 0 0 0-4 4v1.5h4a3.5 3.5 0 1 1 0 7h-4V25a4 4 0 0 0 4 4h12a4 4 0 0 0 4-4V15Zm-16 3a2 2 0 1 1 0 4h-4v-4h4Z" fill="#656CE1"/></svg>
